images/svg/creditCard.svg

<svg viewBox="-2.4 -2.4 28.80 28.80" fill="none" xmlns="http://www.w3.org/2000/svg" stroke="#000000">
    <g id="SVGRepo_bgCarrier" stroke-width="0">
        <rect x="-2.4" y="-2.4" width="28.80" height="28.80" rx="14.4" fill="#00a3a4" strokewidth="0"></rect>
    </g>
    <g id="SVGRepo_tracerCarrier" stroke-linecap="round" stroke-linejoin="round"></g>
    <g id="SVGRepo_iconCarrier">
        <path
            d="M3 9H21M7 15H9M6.2 19H17.8C18.9201 19 19.4802 19 19.908 18.782C20.2843 18.5903 20.5903 18.2843 20.782 17.908C21 17.4802 21 16.9201 21 15.8V8.2C21 7.0799 21 6.51984 20.782 6.09202C20.5903 5.71569 20.2843 5.40973 19.908 5.21799C19.4802 5 18.9201 5 17.8 5H6.2C5.0799 5 4.51984 5 4.09202 5.21799C3.71569 5.40973 3.40973 5.71569 3.21799 6.09202C3 6.51984 3 7.07989 3 8.2V15.8C3 16.9201 3 17.4802 3.21799 17.908C3.40973 18.2843 3.71569 18.5903 4.09202 18.782C4.51984 19 5.07989 19 6.2 19Z"
            stroke="#ffffff" stroke-width="2" stroke-linecap="round" stroke-linejoin="round"></path>
    </g>
</svg>

<svg viewBox="-2.4 -2.4 28.8 28.8" fill="none" xmlns="http://www.w3.org/2000/svg" stroke="#000">
    <rect x="-2.4" y="-2.4" width="28.8" height="28.8" rx="14.4" fill="#00a3a4" stroke="none" stroke-width="0" />
    <path
        d="M3 9h18M7 15h2m-2.8 4h11.6c1.12 0 1.68 0 2.108-.218a2 2 0 0 0 .874-.874C21 17.48 21 16.92 21 15.8V8.2c0-1.12 0-1.68-.218-2.108a2 2 0 0 0-.874-.874C19.48 5 18.92 5 17.8 5H6.2c-1.12 0-1.68 0-2.108.218a2 2 0 0 0-.874.874C3 6.52 3 7.08 3 8.2v7.6c0 1.12 0 1.68.218 2.108a2 2 0 0 0 .874.874C4.52 19 5.08 19 6.2 19Z"
        stroke="#fff" stroke-width="2" stroke-linecap="round" stroke-linejoin="round" />
</svg>
